X:1
T:Rotherfield
T:A. H. Browne
T:Rotherfield
C:A. H. Browne
%%score { ( 1 2 ) | ( 3 4 ) }
L:1/8
Q:1/4=180
M:4/2
K:A
V:1 treble nm="Piano" snm="Pno."
V:2 treble 
V:3 bass 
V:4 bass 
V:1
 A4 | G4 F4 E4 (F2 G2) | A4 B4 c4 c4 | e4 (d2 c2) B4 A4 | G4 B4 E4 E4 | F4 G4 A4 ^A4 | %6
 B4 c4 d4 B4 | e4 c4 F4 d4 | c4 B4 A4 |] %9
V:2
 A4 | G4 F4 E4 D4 | E6 D2 C4 E4 | E4 E4 F4 F4 | E4 ^D4 E4 E4 | D4 D4 C4 E4 | F6 E2 D4 E4 | %7
 E4 C4 D4 F4 | E6 D2 C4 |] %9
V:3
 A,4 | G,4 F,4 E,4 (F,2 G,2) | A,4 G,4 A,4 A,4 | B,4 B,4 D6 C2 | B,4 A,4 B,4 C4 | A,4 B,4 A,4 C4 | %6
 B,4 ^A,4 B,4 G,4 | A,4 A,4 A,4 A,4 | A,4 G,4 A,4 |] %9
V:4
 A,4 | G,4 F,4 E,4 D,4 | C,4 B,,4 A,,4 A,4 | E,4 A,4 D,4 D,4 | E,4 F,4 G,4 A,4 | A,4 G,4 F,4 E,4 | %6
 D,4 C,4 B,,4 (E,2 D,2) | C,4 F,4 D,4 B,,4 | E,4 E,4 A,,4 |] %9

